X: 99
T: Arabaya Taş Koydum
C: (Anonim)
O: Turkey
F: http://compmusic.upf.edu/node/140
N: huzzam--turku--aksak--arabaya_tas--istanbul
N: makam= huzzam
N: form= turku
N: usul= aksak = 9/8
M: 9/8
L: 1/16
K: C _1/4B _3/4e ^3/4f 
Q: 1/4=216
%%MIDI tuningsystem comma53
g4 g4 g4 f2e2 d2 | f4f4f4e2 d2c2  | e2d2 e2g2 f2e2 d2c2 B2 | 
w:  ARANAĞME  |   |   | 
B2 c2d2 e2f2 a2g6  | g4 g4 g4 f2e2 d2 | \
w:   |  ARANAĞME  | 
f4f4f4e2 d2c2  | e2d2 e2g2 f2e2 d2c2 B2 | 
w:   |   | 
B18  | f2f2 f2f2 f2g2 e4 d2 | d8f2 g2a6  | \
w:   |  A ra ba ya  taş  *  koy  |  dum  ha nı mım    | 
f2f2 f2f2 f2g2 e4 d2 | 
w:  A ra ba ya  taş  *  koy  | 
d6 c2B2 c2d6  | _1/4e3d e2g2 ^f2e2 d2c2 B2 | \
w:  dum   SAZ  |  Ben  bu  yo la  baş  *  koy  | 
B6 G2B2 c2d6  | _1/4e3d e2g2 ^f2e2 d2c2 B2 | 
w:  dum  *  ha nı mım    |  Ben  bu  yo la  baş  *  koy  | 
B6 G2^f2 ^e2f6  | f2f2 f2f2 f2g2 e4 d2 | \
w:  dum   SAZ  |  A ra ba ya  taş  *  koy  | 
d8f2 g2a6  | f2f2 f2f2 f2g2 e4 d2 | 
w:  dum  ha nı mım    |  A ra ba ya  taş  *  koy  | 
d6 c2B2 c2d6  | _1/4e3d e2g2 ^f2e2 d2c2 B2 | \
w:  dum   SAZ  |  Ben  bu  yo la  baş  *  koy  | 
B6 G2B2 c2d6  | _1/4e3d e2g2 ^f2e2 d2c2 B2 | 
w:  dum  *  ha nı mım    |  Ben  bu  yo la  baş  *  koy  | 
B6 G2^f2 ^e2f6  | ^f4 f2f2 f4 f2e2 d2 | \
w:  dum   SAZ  |  Kek li ğim  vak  vak   | 
g2 g4 z2g2 g2a2 g2f2  | f6e2 d2e2 f6 | 
w:  u fak  u fak   |  bas   SAZ  | 
g4g4g4f2 e2d2  | f4 f4 f4 e2d2 c2 | e3de2 g2f2 e2d2 c2B2  | 
w:  Aç  kol la rın   |  sar  boy nu ma    |  İs ter_ öl dür  is *  ter   | 
B2c2 d2e2 f2a2 g6 | g4g4g4f2 e2d2  | \
w:  as   SAZ  |  Aç  kol la rın   | 
f4 f4 f4 e2d2 c2 | e3de2 g2f2 e2d2 c2B2  | 
w:  sar  boy nu ma    |  İs ter_ öl dür  is *  ter   | 
B18 | |


